style/elvis/src/icons/svg/src/phone-mobile-comment.svg

<svg width="24" height="25" viewBox="0 0 24 25" fill="none" xmlns="http://www.w3.org/2000/svg">
<path d="M3.483 24.0276C1.563 24.0276 0.001 22.4638 0 20.5426V4.98871C0.001 3.06651 1.563 1.50271 3.483 1.50171H6.00001C6.41401 1.50171 6.75001 1.8381 6.75001 2.25257C6.75001 2.66705 6.41401 3.00343 6.00001 3.00343H3.483C2.39 3.00343 1.5 3.89446 1.5 4.98871V18.0207H12V14.2664C12 13.8519 12.336 13.5155 12.75 13.5155C13.164 13.5155 13.5 13.8519 13.5 14.2664V20.5416C13.5 22.4638 11.938 24.0276 10.018 24.0276H3.483ZM1.5 20.5416C1.5 21.6358 2.39 22.5258 3.483 22.5258H10.018C11.111 22.5258 12 21.6358 12 20.5416V19.5224H1.5V20.5416Z" fill="black"/>
<path d="M15.75 15.7698C15.651 15.7698 15.554 15.7508 15.462 15.7127C15.182 15.5956 15 15.3233 15 15.019V12.0155H12C9.93201 12.0155 8.25001 10.3316 8.25001 8.26119V3.75602C8.25001 1.68564 9.93201 0.00170898 12 0.00170898H20.25C22.318 0.00170898 24 1.68564 24 3.75602V8.26119C24 10.3316 22.318 12.0155 20.25 12.0155H19.811L16.281 15.5496C16.139 15.6917 15.95 15.7698 15.75 15.7698ZM12 1.50343C10.759 1.50343 9.75001 2.51359 9.75001 3.75602V8.26119C9.75001 9.50362 10.759 10.5138 12 10.5138H15.75C16.164 10.5138 16.5 10.8502 16.5 11.2646V13.2059L18.97 10.733C19.11 10.5929 19.303 10.5128 19.5 10.5128H20.25C21.491 10.5128 22.5 9.50262 22.5 8.26019V3.75502C22.5 2.51259 21.491 1.50243 20.25 1.50243H12V1.50343Z" fill="black"/>
<path d="M12.375 7.13489C11.755 7.13489 11.25 6.62931 11.25 6.0086C11.25 5.4009 11.726 4.90733 12.334 4.88531C12.339 4.88431 12.358 4.88431 12.376 4.88431C12.384 4.88431 12.411 4.88531 12.419 4.88531C13.02 4.90333 13.5 5.3969 13.5 6.0086C13.5 6.62931 12.995 7.13489 12.375 7.13489Z" fill="black"/>
<path d="M16.125 7.13489C15.505 7.13489 15 6.62931 15 6.0086C15 5.4009 15.476 4.90733 16.084 4.88531C16.089 4.88431 16.108 4.88431 16.126 4.88431C16.134 4.88431 16.161 4.88531 16.169 4.88531C16.77 4.90333 17.25 5.3969 17.25 6.0086C17.25 6.62931 16.745 7.13489 16.125 7.13489Z" fill="black"/>
<path d="M19.875 7.13491C20.4963 7.13491 21 6.63065 21 6.00862C21 5.38658 20.4963 4.88232 19.875 4.88232C19.2537 4.88232 18.75 5.38658 18.75 6.00862C18.75 6.63065 19.2537 7.13491 19.875 7.13491Z" fill="black"/>
</svg>

<svg width="24" height="25" fill="none" xmlns="http://www.w3.org/2000/svg"><path d="M3.483 24.028A3.49 3.49 0 010 20.543V4.989a3.49 3.49 0 013.483-3.487H6a.75.75 0 010 1.501H3.483A1.987 1.987 0 001.5 4.99v13.03H12v-3.755a.75.75 0 111.5 0v6.276a3.488 3.488 0 01-3.482 3.486H3.483zM1.5 20.542c0 1.094.89 1.984 1.983 1.984h6.535c1.093 0 1.982-.89 1.982-1.984v-1.02H1.5v1.02z" fill="#1B314B"/><path d="M15.75 15.77a.75.75 0 01-.75-.751v-3.004h-3a3.756 3.756 0 01-3.75-3.754V3.756A3.756 3.756 0 0112 .002h8.25A3.756 3.756 0 0124 3.756v4.505a3.756 3.756 0 01-3.75 3.755h-.439l-3.53 3.534a.746.746 0 01-.531.22zM12 1.503a2.253 2.253 0 00-2.25 2.253v4.505A2.253 2.253 0 0012 10.514h3.75a.75.75 0 01.75.75v1.942l2.47-2.473c.14-.14.333-.22.53-.22h.75c1.241 0 2.25-1.01 2.25-2.253V3.755a2.253 2.253 0 00-2.25-2.253H12v.001z" fill="#1B314B"/><path d="M12.375 7.135c-.62 0-1.125-.506-1.125-1.126a1.12 1.12 0 011.084-1.124h.085A1.117 1.117 0 0113.5 6.01c0 .62-.505 1.126-1.125 1.126zm3.75 0c-.62 0-1.125-.506-1.125-1.126a1.12 1.12 0 011.084-1.124h.085A1.117 1.117 0 0117.25 6.01c0 .62-.505 1.126-1.125 1.126zm3.75 0a1.126 1.126 0 10-.001-2.251 1.126 1.126 0 00.001 2.25z" fill="#1B314B"/></svg>
